src/public/cloud.svg

<svg width="22" height="18" viewBox="0 0 22 18" fill="none" xmlns="http://www.w3.org/2000/svg">
<path fill-rule="evenodd" clip-rule="evenodd" d="M11.226 1.5C8.476 1.5 6.262 3.7 6.262 6.397C6.262 6.859 6.327 7.306 6.447 7.728C6.944 7.872 7.41 8.088 7.83 8.368C7.91639 8.42033 7.99132 8.48958 8.0503 8.57158C8.10927 8.65358 8.15108 8.74665 8.1732 8.8452C8.19533 8.94376 8.19732 9.04576 8.17906 9.14511C8.16079 9.24445 8.12265 9.33908 8.06692 9.42332C8.01118 9.50755 7.93901 9.57967 7.85472 9.63533C7.77044 9.69099 7.67578 9.72906 7.57642 9.74724C7.47706 9.76542 7.37506 9.76334 7.27652 9.74113C7.17799 9.71893 7.08495 9.67704 7.003 9.618C6.41992 9.23165 5.73546 9.02669 5.036 9.029C3.075 9.029 1.5 10.599 1.5 12.515C1.5 14.431 3.075 16 5.036 16H15.036C17.786 16 20 13.8 20 11.103C20 8.966 18.61 7.141 16.662 6.475C16.1386 6.29599 15.5892 6.20476 15.036 6.205C14.453 6.205 13.896 6.305 13.378 6.485C13.1914 6.54593 12.9883 6.53126 12.8124 6.44415C12.6365 6.35704 12.5017 6.20443 12.4371 6.01909C12.3724 5.83374 12.383 5.63043 12.4666 5.4528C12.5501 5.27516 12.7 5.13737 12.884 5.069C13.8539 4.73042 14.8901 4.62591 15.908 4.764C15.5585 3.80419 14.9212 2.97564 14.0833 2.39147C13.2453 1.8073 12.2475 1.49597 11.226 1.5ZM17.581 5.221C17.022 2.244 14.384 0 11.226 0C7.664 0 4.762 2.856 4.762 6.397C4.762 6.784 4.797 7.164 4.864 7.532C2.17 7.622 0 9.81 0 12.515C0 15.276 2.263 17.5 5.036 17.5H15.036C18.597 17.5 21.5 14.644 21.5 11.103C21.5 8.459 19.881 6.198 17.581 5.221Z" fill="white"/>
</svg>

<svg xmlns="http://www.w3.org/2000/svg" width="22" height="18" fill="none" xmlns:v="https://vecta.io/nano"><path fill-rule="evenodd" d="M11.226 1.5c-2.75 0-4.964 2.2-4.964 4.897 0 .462.065.909.185 1.331a5 5 0 0 1 1.383.64.75.75 0 0 1 .343.477.75.75 0 0 1-.106.578.75.75 0 0 1-.49.324.75.75 0 0 1-.573-.129 3.54 3.54 0 0 0-1.967-.589c-1.961 0-3.536 1.57-3.536 3.486S3.075 16 5.036 16h10C17.786 16 20 13.8 20 11.103c0-2.137-1.39-3.962-3.338-4.628a5.02 5.02 0 0 0-1.626-.27 5.04 5.04 0 0 0-1.658.28.75.75 0 0 1-.941-.466.75.75 0 0 1 .447-.95c.97-.339 2.006-.443 3.024-.305A4.96 4.96 0 0 0 11.226 1.5zm6.355 3.721C17.022 2.244 14.384 0 11.226 0 7.664 0 4.762 2.856 4.762 6.397a6.34 6.34 0 0 0 .102 1.135C2.17 7.622 0 9.81 0 12.515 0 15.276 2.263 17.5 5.036 17.5h10c3.561 0 6.464-2.856 6.464-6.397 0-2.644-1.619-4.905-3.919-5.882z" fill="#fff"/></svg>
